contributed-vectors/malmal_community_drawing.svg

<?xml version="1.0" encoding="UTF-8" standalone="no"?>
<svg
   xmlns:dc="http://purl.org/dc/elements/1.1/"
   xmlns:cc="http://creativecommons.org/ns#"
   xmlns:rdf="http://www.w3.org/1999/02/22-rdf-syntax-ns#"
   xmlns:svg="http://www.w3.org/2000/svg"
   xmlns="http://www.w3.org/2000/svg"
   xmlns:sodipodi="http://sodipodi.sourceforge.net/DTD/sodipodi-0.dtd"
   xmlns:inkscape="http://www.inkscape.org/namespaces/inkscape"
   inkscape:export-ydpi="96"
   inkscape:export-xdpi="96"
   inkscape:export-filename="/home/jphilippe/github/android/app/src/main/res/drawable-nodpi/malmal_community_drawing.png"
   inkscape:version="1.0 (4035a4fb49, 2020-05-01)"
   sodipodi:docname="malmal_community_drawing.svg"
   xml:space="preserve"
   enable-background="new 0 0 192 192"
   viewBox="0 0 192 192"
   height="192px"
   width="192px"
   y="0px"
   x="0px"
   id="Layer_1"
   version="1.1"><metadata
   id="metadata13"><rdf:RDF><cc:Work
       rdf:about=""><dc:format>image/svg+xml</dc:format><dc:type
         rdf:resource="http://purl.org/dc/dcmitype/StillImage" /></cc:Work></rdf:RDF></metadata><defs
   id="defs11" /><sodipodi:namedview
   inkscape:current-layer="Layer_1"
   inkscape:window-maximized="1"
   inkscape:window-y="0"
   inkscape:window-x="36"
   inkscape:cy="-26.429962"
   inkscape:cx="-80.339757"
   inkscape:zoom="1.3534466"
   inkscape:snap-midpoints="true"
   inkscape:snap-smooth-nodes="true"
   inkscape:snap-intersection-paths="true"
   inkscape:object-paths="true"
   showgrid="false"
   id="namedview9"
   inkscape:window-height="1052"
   inkscape:window-width="1884"
   inkscape:pageshadow="2"
   inkscape:pageopacity="0"
   guidetolerance="10"
   gridtolerance="10"
   objecttolerance="10"
   borderopacity="1"
   bordercolor="#666666"
   pagecolor="#ffffff" />
<rect
   id="rect7195"
   rx="10"
   y="19.5"
   x="19.5"
   height="153"
   width="153"
   style="fill:#99bdfe;fill-opacity:1;fill-rule:evenodd;stroke:none;stroke-opacity:1;opacity:1"
   ry="10" /><path
   style="fill:#fefefe;fill-opacity:1"
   d="M 153.81445 19.5 L 105.83008 120.02148 C 104.02708 123.92848 104.16606 129.07031 107.16406 132.19531 C 105.80106 131.95431 104.39811 131.96167 103.03711 132.26367 C 100.71411 132.77967 97.614375 134.31103 95.984375 136.08203 C 92.407375 139.97203 93.064609 145.11345 90.599609 149.43945 C 85.793609 157.87545 66.916578 146.61513 61.142578 142.32812 C 46.638578 131.55713 35.560547 115.52158 35.560547 97.642578 C 35.560547 67.845578 62.910391 43.689453 96.650391 43.689453 C 109.55239 43.689453 121.51691 47.225906 131.37891 53.253906 L 136.53125 42.457031 C 124.99125 35.658031 111.19423 31.699219 96.365234 31.699219 C 55.846234 31.699219 23 61.223578 23 97.642578 C 23 121.59658 39.792859 147.43575 62.755859 155.96875 C 72.053859 159.42375 81.868703 161.73927 91.845703 161.19727 C 93.131703 161.12827 94.458828 161.00822 95.798828 160.82422 C 102.00383 159.97822 108.49114 157.78547 112.49414 152.98047 C 115.88314 148.91247 117.69227 142.05903 114.82227 137.33203 C 114.25627 136.39903 113.5397 135.57047 112.7207 134.85547 C 117.6387 135.50047 121.67947 132.39956 123.60547 128.22656 L 169.94531 22.828125 C 169.8909 22.767415 169.83712 22.705834 169.78125 22.646484 C 169.64424 22.503923 169.50675 22.364051 169.36523 22.228516 C 169.20252 22.074885 169.03999 21.919835 168.86719 21.777344 C 167.13992 20.353042 164.92375 19.5 162.5 19.5 L 153.81445 19.5 z M 113.48242 50.763672 C 107.8224 50.620388 102.88617 52.877891 98.068359 57.962891 C 92.929359 63.386891 90.645734 75.375734 94.927734 76.802734 C 99.209734 78.229734 102.3505 75.089797 104.0625 73.091797 C 105.7755 71.092797 109.77148 69.665953 109.77148 73.376953 C 109.77148 77.087953 102.0642 78.516359 97.783203 79.943359 C 93.500203 81.370359 91.787109 83.369703 91.787109 90.220703 C 91.787109 97.071703 94.072094 95.644625 99.496094 99.640625 C 104.92009 103.63762 105.49061 105.63523 104.34961 108.49023 C 103.20861 111.34523 104.0625 112.19922 104.0625 112.19922 L 129.4707 56.820312 C 129.4707 56.820312 121.762 51.395219 114.625 50.824219 C 114.24106 50.793469 113.85976 50.773224 113.48242 50.763672 z M 59.367188 59.833984 C 58.235749 59.890964 57.724609 60.4375 57.724609 60.4375 C 57.724609 60.4375 50.397203 65.099562 44.783203 75.851562 C 38.862203 87.193562 38.885547 91.647641 42.310547 93.931641 C 45.735547 96.215641 48.208703 96.786953 48.970703 102.87695 C 49.731703 108.96595 49.732719 109.728 51.636719 111.25 C 53.540719 112.772 48.968312 114.29412 47.445312 116.57812 C 45.923313 118.86113 45.924391 122.6673 52.775391 130.2793 C 59.626391 137.8913 63.431938 139.79688 65.335938 139.79688 C 67.239937 139.79688 66.097781 133.32509 71.425781 127.99609 C 76.753781 122.66709 78.277281 116.95762 75.613281 112.39062 C 72.949281 107.82362 67.240391 102.11464 61.150391 106.68164 C 55.060391 111.24864 53.917109 113.15316 53.537109 105.16016 C 53.156109 97.167156 56.963594 91.458109 63.433594 88.412109 C 69.903594 85.367109 73.912938 87.697406 73.710938 81.941406 C 73.520938 76.517406 72.392781 69.584187 67.050781 64.242188 C 63.303969 60.495375 60.821894 59.760725 59.367188 59.833984 z M 158.62695 62.755859 L 152.71875 76.195312 C 155.94675 82.769312 157.74023 90.018625 157.74023 97.640625 C 157.74023 97.640625 157.92933 110.10863 153.36133 120.76562 C 148.79433 131.42163 135.8533 145.50455 130.9043 149.31055 C 127.4093 151.99855 130.90594 152.35527 139.46094 148.32227 C 159.04394 139.08727 169.73047 119.17563 169.73047 97.640625 C 169.72847 84.830625 165.65995 72.875859 158.62695 62.755859 z M 150.88086 79.371094 L 143.74414 95.357422 C 143.74414 95.357422 144.31381 94.216688 148.88281 95.929688 C 153.44981 97.641688 155.16211 97.927734 155.16211 97.927734 C 155.16211 97.927734 155.44786 86.793094 150.88086 79.371094 z M 93.3125 146.45703 C 94.0735 152.35603 90.267578 154.64063 90.267578 154.64062 C 93.693578 155.59162 99.783203 155.40234 99.783203 155.40234 C 98.070203 157.11534 95.595703 158.06641 95.595703 158.06641 C 98.069703 158.44741 104.16016 157.11523 104.16016 157.11523 C 96.547156 160.92123 85.890625 159.58789 85.890625 159.58789 C 88.555625 159.58789 91.980469 158.44531 91.980469 158.44531 C 88.364469 158.44531 83.605469 156.35352 83.605469 156.35352 C 87.792469 157.11552 91.789062 155.78125 91.789062 155.78125 L 89.695312 155.5918 C 85.508313 155.4018 82.369141 153.59375 82.369141 153.59375 C 92.169141 154.82975 93.3125 146.45703 93.3125 146.45703 z "
   id="path4" />
</svg>

<?xml version="1.0" encoding="utf-8"?>
<!-- Generator: Adobe Illustrator 16.0.0, SVG Export Plug-In . SVG Version: 6.00 Build 0)  -->
<!DOCTYPE svg PUBLIC "-//W3C//DTD SVG 1.1//EN" "http://www.w3.org/Graphics/SVG/1.1/DTD/svg11.dtd">
<svg version="1.1" id="Layer_1" xmlns="http://www.w3.org/2000/svg" xmlns:xlink="http://www.w3.org/1999/xlink" x="0px" y="0px"
	 width="192px" height="192px" viewBox="0 0 192 192" enable-background="new 0 0 192 192" xml:space="preserve">
<g>
	<path fill="#99BEF9" d="M178,144.744C178,163.663,162.663,179,143.744,179H47.256C28.337,179,13,163.663,13,144.744V48.256
		C13,29.337,28.337,14,47.256,14h96.488C162.663,14,178,29.337,178,48.256V144.744z"/>
	<path fill="#FFFFFF" d="M155.616,15.729l-49.785,104.293c-1.803,3.907-1.664,9.049,1.334,12.174
		c-1.363-0.241-2.767-0.235-4.128,0.067c-2.323,0.516-5.422,2.048-7.052,3.819c-3.577,3.89-2.921,9.031-5.386,13.357
		c-4.806,8.436-23.682-2.823-29.456-7.11C46.639,131.558,35.56,115.521,35.56,97.642c0-29.797,27.35-53.953,61.09-53.953
		c12.902,0,24.866,3.536,34.728,9.564l5.154-10.796c-11.54-6.799-25.338-10.757-40.167-10.757
		c-40.519,0-73.365,29.523-73.365,65.942c0,23.954,16.792,49.793,39.755,58.326c9.298,3.455,19.114,5.771,29.091,5.229
		c1.286-0.069,2.613-0.189,3.953-0.373c6.205-0.846,12.693-3.038,16.696-7.843c3.389-4.068,5.197-10.921,2.327-15.648
		c-0.566-0.933-1.283-1.763-2.102-2.478c4.918,0.645,8.96-2.455,10.886-6.628l45.529-103.553
		C165.444,20.699,160.824,17.6,155.616,15.729z M85.89,159.588c2.665,0,6.09-1.142,6.09-1.142c-3.616,0-8.374-2.093-8.374-2.093
		c4.187,0.762,8.183-0.571,8.183-0.571l-2.093-0.19c-4.187-0.19-7.327-1.998-7.327-1.998c9.8,1.236,10.943-7.137,10.943-7.137
		c0.761,5.899-3.045,8.184-3.045,8.184c3.426,0.951,9.516,0.761,9.516,0.761c-1.713,1.713-4.187,2.665-4.187,2.665
		c2.474,0.381,8.564-0.952,8.564-0.952C96.547,160.921,85.89,159.588,85.89,159.588z M104.063,112.2l25.407-55.38
		c0,0-7.708-5.424-14.845-5.995c-6.143-0.492-11.418,1.713-16.557,7.137s-7.422,17.414-3.14,18.841
		c4.282,1.427,7.422-1.713,9.134-3.711c1.713-1.999,5.71-3.426,5.71,0.285c0,3.711-7.708,5.139-11.989,6.566
		c-4.283,1.427-5.995,3.426-5.995,10.277c0,6.851,2.284,5.424,7.708,9.42c5.424,3.997,5.994,5.995,4.853,8.85
		C103.208,111.345,104.063,112.2,104.063,112.2z M158.627,62.756l-5.908,13.439c3.228,6.574,5.021,13.824,5.021,21.446
		c0,0,0.19,12.467-4.378,23.124c-4.567,10.656-17.508,24.74-22.457,28.546c-3.495,2.688,0,3.045,8.555-0.988
		c19.583-9.235,30.271-29.147,30.271-50.682C169.729,84.831,165.66,72.876,158.627,62.756z M148.883,95.929
		c4.567,1.712,6.279,1.999,6.279,1.999s0.286-11.134-4.281-18.556l-7.137,15.986C143.744,95.358,144.314,94.216,148.883,95.929z
		 M47.446,116.578c-1.522,2.283-1.522,6.09,5.329,13.702s10.657,9.516,12.561,9.516s0.762-6.47,6.09-11.799
		s6.851-11.039,4.187-15.606c-2.664-4.567-8.373-10.276-14.463-5.709s-7.232,6.471-7.612-1.522
		c-0.381-7.993,3.426-13.702,9.896-16.748c6.47-3.045,10.479-0.714,10.277-6.47c-0.19-5.424-1.319-12.357-6.661-17.699
		c-6.661-6.661-9.325-3.806-9.325-3.806s-7.327,4.663-12.941,15.415c-5.921,11.342-5.899,15.796-2.474,18.08
		s5.899,2.855,6.661,8.945c0.761,6.089,0.761,6.851,2.665,8.373S48.969,114.294,47.446,116.578z"/>
</g>
</svg>
